public/payments/common/american-express.svg

<svg width="44" height="45" viewBox="0 0 44 45" fill="none" xmlns="http://www.w3.org/2000/svg">
<path d="M4.05615 18.7187H5.56865L4.8124 16.7937L4.05615 18.7187Z" fill="#2FABF7"/>
<path d="M22.8249 17.0688C22.6874 17 22.4812 17 22.2749 17H20.8999V18.1H22.2749C22.4812 18.1 22.6874 18.1 22.8249 18.0312C22.9624 17.9625 23.0312 17.7562 23.0312 17.55C23.0999 17.275 22.9624 17.1375 22.8249 17.0688Z" fill="#228FE0"/>
<path d="M37.5375 15.0063V15.8313L37.125 15.0063H33.8937V15.8313L33.4813 15.0063H29.0812C28.325 15.0063 27.7062 15.1438 27.1562 15.4188V15.0063H24.0625V15.4188C23.7188 15.1438 23.3062 15.0063 22.7562 15.0063H11.6875L10.9312 16.7251L10.175 15.0063H6.66875V15.8313L6.25625 15.0063H3.3L1.925 18.2376L0.34375 21.8126H3.85L4.2625 20.7126H5.225L5.6375 21.8126H9.625V20.9876L9.96875 21.8126H11.9625L12.3062 20.9876V21.8126H21.8625V20.0251H22C22.1375 20.0251 22.1375 20.0251 22.1375 20.2313V21.7438H27.0875V21.3313C27.5 21.5376 28.1187 21.7438 28.9437 21.7438H31.0062L31.4188 20.6438H32.3812L32.7938 21.7438H36.7812V20.7126L37.4 21.7438H40.6312V15.0063H37.5375ZM14.3 20.7813H13.1313V17.0001L11.4813 20.7813H10.45L8.8 17.0001V20.7813H6.4625L5.98125 19.7501H3.64375L3.23125 20.8501H1.925L3.9875 15.9688H5.70625L7.63125 20.5751V15.9688H9.4875L11 19.2688L12.375 15.9688H14.3V20.7813ZM18.975 17.0001H16.2938V17.8938H18.9062V18.8563H16.2938V19.8188H18.975V20.8501H15.125V15.9688H18.975V17.0001ZM24.1312 18.9938C24.2687 19.2688 24.3375 19.4751 24.3375 19.8876V20.8501H23.1688V20.2313C23.1688 19.9563 23.1688 19.5438 22.9625 19.2688C22.7563 19.0626 22.55 19.0626 22.1375 19.0626H20.9V20.8501H19.7313V15.9688H22.3438C22.9625 15.9688 23.375 15.9688 23.7188 16.1751C24.0625 16.3813 24.2687 16.7251 24.2687 17.2751C24.2687 18.0313 23.7875 18.4438 23.4437 18.5813C23.7875 18.6501 23.9937 18.8563 24.1312 18.9938ZM26.1937 20.7813H25.025V15.9001H26.1937V20.7813ZM39.7375 20.7813H38.0875L35.8875 17.1376V20.7813H33.55L33.1375 19.7501H30.7313L30.3187 20.8501H29.0125C28.4625 20.8501 27.775 20.7126 27.3625 20.3001C26.95 19.8876 26.7438 19.3376 26.7438 18.4438C26.7438 17.7563 26.8813 17.0688 27.3625 16.5188C27.7062 16.1063 28.325 15.9688 29.0812 15.9688H30.1813V17.0001H29.0812C28.6687 17.0001 28.4625 17.0688 28.1875 17.2751C27.9813 17.4813 27.8438 17.8938 27.8438 18.3751C27.8438 18.9251 27.9125 19.2688 28.1875 19.5438C28.3937 19.7501 28.6688 19.8188 29.0125 19.8188H29.4938L31.075 16.0376H32.7938L34.7188 20.6438V16.0376H36.4375L38.4313 19.4063V16.0376H39.6V20.7813H39.7375Z" fill="#0571C1"/>
<path d="M31.1439 18.7187H32.7252L31.9689 16.7937L31.1439 18.7187ZM19.4564 28.6187V24.7L17.6689 26.6249L19.4564 28.6187Z" fill="#228FE0"/>
<path d="M12.1001 25.1812V26.0749H14.6438V27.0374H12.1001V28.0687H14.9188L16.2251 26.6249L14.9876 25.1812H12.1001Z" fill="#2FABF7"/>
<path d="M22.0687 25.1812H20.625V26.4187H22.1375C22.55 26.4187 22.825 26.2124 22.825 25.7999C22.7563 25.3874 22.4812 25.1812 22.0687 25.1812Z" fill="#228FE0"/>
<path d="M43.3124 26.3501V23.2563H40.4249C39.8062 23.2563 39.3249 23.3938 38.9812 23.6688V23.2563H35.8186C35.3374 23.2563 34.7187 23.3938 34.4436 23.6688V23.2563H28.8749V23.6688C28.4624 23.3251 27.7062 23.2563 27.3624 23.2563H23.6499V23.6688C23.3062 23.3251 22.4812 23.2563 22.0687 23.2563H17.9437L16.9812 24.2876L16.0874 23.2563H9.8999V29.9938H15.9499L16.9124 28.9626L17.8062 29.9938H21.5187V28.4126H21.9999C22.4812 28.4126 23.0999 28.4126 23.5812 28.2063V30.0626H26.6749V28.2751H26.8124C27.0187 28.2751 27.0187 28.2751 27.0187 28.4813V30.0626H36.3687C36.9874 30.0626 37.6062 29.9251 37.9499 29.6501V30.0626H40.9062C41.5249 30.0626 42.1437 29.9938 42.5562 29.7188C43.2437 29.3063 43.6562 28.5501 43.6562 27.6563C43.6562 27.1751 43.5187 26.6938 43.3124 26.3501ZM21.9999 27.4501H20.6249V29.1001H18.4249L17.0499 27.5188L15.6062 29.1001H11.0687V24.2188H15.6749L17.0499 25.8001L18.4937 24.2188H22.1374C23.0312 24.2188 24.0624 24.4938 24.0624 25.8001C23.9937 27.1751 23.0312 27.4501 21.9999 27.4501ZM28.8749 27.1751C29.0124 27.3813 29.0812 27.6563 29.0812 28.0688V29.0313H27.9124V28.4126C27.9124 28.1376 27.9124 27.6563 27.7062 27.4501C27.5687 27.2438 27.2937 27.2438 26.8812 27.2438H25.6437V29.0313H24.4749V24.1501H27.0874C27.6374 24.1501 28.1187 24.1501 28.4624 24.3563C28.8062 24.5626 29.0812 24.9063 29.0812 25.4563C29.0812 26.2126 28.5999 26.6251 28.2562 26.7626C28.5999 26.9001 28.8062 27.0376 28.8749 27.1751ZM33.6187 25.1813H30.9374V26.0751H33.5499V27.0376H30.9374V28.0001H33.6187V29.0313H29.7687V24.1501H33.6187V25.1813ZM36.5061 29.0313H34.3062V28.0001H36.5061C36.7124 28.0001 36.8499 28.0001 36.9874 27.8626C37.0562 27.7938 37.1249 27.6563 37.1249 27.5188C37.1249 27.3813 37.0562 27.2438 36.9874 27.1751C36.9187 27.1063 36.7812 27.0376 36.5749 27.0376C35.4749 26.9688 34.1687 27.0376 34.1687 25.5251C34.1687 24.8376 34.5812 24.0813 35.8186 24.0813H38.0874V25.2501H35.9562C35.7499 25.2501 35.6124 25.2501 35.4749 25.3188C35.3374 25.3876 35.3374 25.5251 35.3374 25.6626C35.3374 25.8688 35.4749 25.9376 35.6124 26.0063C35.7499 26.0751 35.8874 26.0751 36.0249 26.0751H36.6437C37.2624 26.0751 37.6749 26.2126 37.9499 26.4876C38.1562 26.6938 38.2937 27.0376 38.2937 27.5188C38.2937 28.5501 37.6749 29.0313 36.5061 29.0313ZM42.4187 28.5501C42.1437 28.8251 41.6624 29.0313 40.9749 29.0313H38.7749V28.0001H40.9749C41.1812 28.0001 41.3187 28.0001 41.4562 27.8626C41.5249 27.7938 41.5937 27.6563 41.5937 27.5188C41.5937 27.3813 41.5249 27.2438 41.4562 27.1751C41.3874 27.1063 41.2499 27.0376 41.0437 27.0376C39.9437 26.9688 38.6374 27.0376 38.6374 25.5251C38.6374 24.8376 39.0499 24.0813 40.2874 24.0813H42.5562V25.2501H40.4937C40.2874 25.2501 40.1499 25.2501 40.0124 25.3188C39.8749 25.3876 39.8749 25.5251 39.8749 25.6626C39.8749 25.8688 39.9437 25.9376 40.1499 26.0063C40.2874 26.0751 40.4249 26.0751 40.5624 26.0751H41.1812C41.7999 26.0751 42.2124 26.2126 42.4874 26.4876C42.5562 26.4876 42.5562 26.5563 42.5562 26.5563C42.7624 26.8313 42.8312 27.1751 42.8312 27.5188C42.8312 27.9313 42.6937 28.2751 42.4187 28.5501Z" fill="#0571C1"/>
<path d="M27.6374 25.3187C27.4999 25.25 27.2937 25.25 27.0874 25.25H25.7124V26.35H27.0874C27.2937 26.35 27.4999 26.35 27.6374 26.2812C27.7749 26.2125 27.8437 26.0062 27.8437 25.8C27.9124 25.525 27.7749 25.3875 27.6374 25.3187Z" fill="#228FE0"/>
<path d="M22.8252 17.0687C22.6877 17 22.4814 17 22.2752 17H20.9002V18.1H22.2752C22.4814 18.1 22.6877 18.1 22.8252 18.0312C22.9627 17.9625 23.0314 17.7562 23.0314 17.55C23.1002 17.275 22.9627 17.1375 22.8252 17.0687ZM31.1439 18.7187H32.7252L31.9689 16.7937L31.1439 18.7187ZM19.4564 28.6187V24.7L17.6689 26.6249L19.4564 28.6187ZM22.0689 25.1812H20.6252V26.4187H22.1377C22.5502 26.4187 22.8252 26.2124 22.8252 25.7999C22.7564 25.3874 22.4814 25.1812 22.0689 25.1812ZM27.6377 25.3187C27.5002 25.2499 27.2939 25.2499 27.0877 25.2499H25.7127V26.3499H27.0877C27.2939 26.3499 27.5002 26.3499 27.6377 26.2812C27.7752 26.2125 27.8439 26.0062 27.8439 25.7999C27.9127 25.5249 27.7752 25.3874 27.6377 25.3187Z" fill="#228FE0"/>
<path d="M21.5874 28.8938L20.6249 27.8626V29.0313H18.3562L16.9812 27.4501L15.4687 29.0313H10.9312V24.2188H15.5374L16.9812 25.8001L17.6687 24.9751L15.9499 23.2563H9.8999V29.9938H15.9499L16.9812 28.9626L17.8749 29.9938H21.5874V28.8938Z" fill="#2FABF7"/>
<path d="M14.4375 21.7438L13.5438 20.7813H13.1313V20.3688L12.1 19.3376L11.4125 20.7813H10.45L8.8 17.0001V20.7813H6.4625L5.98125 19.7501H3.64375L3.1625 20.7813H1.925L3.9875 15.9688H5.70625L7.63125 20.5751V15.9688H8.6625L7.7 15.0063H6.66875V15.8313L6.325 15.0063H3.3L1.925 18.2376L0.34375 21.7438H3.91875L4.33125 20.7126H5.29375L5.775 21.7438H9.625V20.9188L9.96875 21.7438H11.9625L12.3062 20.9188V21.7438H14.4375Z" fill="#2FABF7"/>
<path d="M11.2748 18.5814L10.1748 17.4814L10.9998 19.2689L11.2748 18.5814Z" fill="#2FABF7"/>
<path d="M42.5561 29.6501C43.1748 29.2376 43.5873 28.55 43.6561 27.7938L42.6936 26.8313C42.7623 27.0375 42.8311 27.2438 42.8311 27.5188C42.8311 27.9313 42.6936 28.275 42.4186 28.55C42.1436 28.825 41.6623 29.0313 40.9748 29.0313H38.7748V28H40.9748C41.1811 28 41.3186 28 41.4561 27.8625C41.5248 27.7938 41.5936 27.6563 41.5936 27.5188C41.5936 27.3813 41.5248 27.2438 41.4561 27.175C41.3873 27.1063 41.2498 27.0375 41.0436 27.0375C39.9436 26.9688 38.6373 27.0376 38.6373 25.5251C38.6373 24.8376 39.0498 24.2188 40.0811 24.0813L39.3248 23.325C39.1873 23.3938 39.1186 23.4626 39.0498 23.4626V23.05H35.8873C35.4061 23.05 34.7873 23.1876 34.5123 23.4626V23.05H28.8748V23.4626C28.4623 23.1188 27.7061 23.05 27.3623 23.05H23.6498V23.4626C23.3061 23.1188 22.4811 23.05 22.0686 23.05H17.9436L16.9811 24.0813L16.0873 23.05H15.3311L17.3936 25.1125L18.4248 24.0125H22.0686C22.9623 24.0125 23.9936 24.2875 23.9936 25.5938C23.9936 26.9688 23.0311 27.2438 21.9998 27.2438H20.6248V28.2751L21.6561 29.3063V28.2751H21.9998C22.4811 28.2751 23.0998 28.275 23.5811 28.0688V29.925H26.6748V28.1375H26.8123C27.0186 28.1375 27.0186 28.1375 27.0186 28.3438V29.925H36.3686C36.9873 29.925 37.6061 29.7875 37.9498 29.5125V29.925H40.9061C41.4561 29.9938 42.0748 29.9251 42.5561 29.6501ZM28.8748 27.175C29.0123 27.3813 29.0811 27.6563 29.0811 28.0688V29.0313H27.9123V28.4125C27.9123 28.1375 27.9123 27.6563 27.7061 27.45C27.5686 27.2438 27.2936 27.2438 26.8811 27.2438H25.6436V29.0313H24.4748V24.1501H27.0873C27.6373 24.1501 28.1186 24.15 28.4623 24.3563C28.8061 24.5625 29.0811 24.9063 29.0811 25.4563C29.0811 26.2125 28.5998 26.625 28.2561 26.7625C28.5998 26.9 28.8061 27.0375 28.8748 27.175ZM33.6186 25.1813H30.9373V26.075H33.5498V27.0375H30.9373V28H33.6186V29.0313H29.7686V24.1501H33.6186V25.1813ZM36.5061 29.0313H34.3061V28H36.5061C36.7123 28 36.8498 28 36.9873 27.8625C37.0561 27.7938 37.1248 27.6563 37.1248 27.5188C37.1248 27.3813 37.0561 27.2438 36.9873 27.175C36.9186 27.1063 36.7811 27.0375 36.5748 27.0375C35.4748 26.9688 34.1686 27.0376 34.1686 25.5251C34.1686 24.8376 34.5811 24.0813 35.8186 24.0813H38.0873V25.25H35.9561C35.7498 25.25 35.6123 25.25 35.4748 25.3188C35.3373 25.3875 35.3373 25.525 35.3373 25.6625C35.3373 25.8688 35.4748 25.9375 35.6123 26.0063C35.7498 26.075 35.8873 26.075 36.0248 26.075H36.6436C37.2623 26.075 37.6748 26.2125 37.9498 26.4875C38.1561 26.6938 38.2936 27.0375 38.2936 27.5188C38.2936 28.55 37.6748 29.0313 36.5061 29.0313Z" fill="#228FE0"/>
<path d="M39.8062 25.6625C39.8062 25.8687 39.8749 25.9375 40.0812 26.0062C40.2187 26.075 40.3562 26.075 40.4937 26.075H41.1124C41.5249 26.075 41.7999 26.1438 42.0749 26.2812L41.0437 25.25H40.4249C40.2187 25.25 40.0812 25.25 39.9437 25.3187C39.8749 25.3875 39.8062 25.525 39.8062 25.6625Z" fill="#228FE0"/>
<path d="M37.3999 21.5374L37.5374 21.7436H37.6062L37.3999 21.5374ZM33.6187 17.7561L34.7874 20.5749V18.9249L33.6187 17.7561Z" fill="#228FE0"/>
<path d="M21.8624 20.025H21.9999C22.1374 20.025 22.1374 20.025 22.1374 20.2312V21.7437H27.0874V21.3312C27.4999 21.5375 28.1187 21.7437 28.9437 21.7437H31.0062L31.4187 20.6437H32.3812L32.7937 21.7437H36.7812V21.0562L35.8187 20.0937V20.85H33.4812L33.1374 19.75H30.7312L30.3187 20.85H29.0124C28.4624 20.85 27.7749 20.7125 27.3624 20.3C26.9499 19.8875 26.7437 19.3375 26.7437 18.4437C26.7437 17.7562 26.8812 17.0687 27.3624 16.5187C27.7062 16.1062 28.3249 15.9687 29.0812 15.9687H30.1812V17H29.0812C28.6687 17 28.4624 17.0687 28.1874 17.275C27.9812 17.4812 27.8437 17.8937 27.8437 18.375C27.8437 18.925 27.9124 19.2687 28.1874 19.5437C28.3937 19.75 28.6687 19.8187 29.0124 19.8187H29.4937L31.0749 16.0375H31.7624L30.7999 15.075H29.0124C28.2562 15.075 27.6374 15.2125 27.0874 15.4875V15.075H24.0624V15.4875C23.7187 15.2125 23.3062 15.075 22.7562 15.075H11.6874L10.9312 16.7937L10.1749 15.075H7.1499L8.1124 16.0375H9.4874L10.6562 18.5812L11.0687 18.9937L12.3062 15.9687H14.2312V20.85H13.0624V17.0687L11.8937 19.8187L13.8874 21.8125H21.7937L21.8624 20.025ZM25.0249 15.9687H26.1937V20.85H25.0249V15.9687ZM18.9749 17H16.2937V17.8937H18.9062V18.8562H16.2937V19.8187H18.9749V20.85H15.1249V15.9687H18.9749V17ZM20.8999 20.7812H19.7312V15.9H22.3437C22.9624 15.9 23.3749 15.9 23.7187 16.1062C24.0624 16.3125 24.2687 16.6562 24.2687 17.2062C24.2687 17.9625 23.7874 18.375 23.4437 18.5125C23.7187 18.5812 23.9249 18.7875 23.9937 18.925C24.1312 19.2 24.1999 19.4062 24.1999 19.8187V20.7812H23.0312V20.1625C23.0312 19.8875 23.0312 19.475 22.8249 19.2C22.7562 19.0625 22.5499 19.0625 22.1374 19.0625H20.8999V20.7812Z" fill="#228FE0"/>
</svg>

<svg xmlns="http://www.w3.org/2000/svg" width="44" height="45" fill="none"><path fill="#2FABF7" d="M4.06 18.72h1.5l-.75-1.93-.75 1.93Z"/><path fill="#228FE0" d="M22.82 17.07c-.13-.07-.34-.07-.55-.07H20.9v1.1h1.37c.21 0 .42 0 .55-.07.14-.07.21-.27.21-.48.07-.28-.07-.41-.2-.48Z"/><path fill="#0571C1" d="M37.54 15v.83l-.41-.82h-3.24v.82l-.4-.82h-4.4c-.77 0-1.38.13-1.93.4v-.4h-3.1v.4a1.98 1.98 0 0 0-1.3-.4H11.69l-.76 1.72-.75-1.72H6.67v.82l-.41-.82H3.3l-1.37 3.23L.33 21.8h3.51l.41-1.1h.96l.42 1.1h3.99V21l.34.82h2l.34-.82v.82h9.55v-1.78H22c.14 0 .14 0 .14.2v1.51h4.95v-.4c.41.2 1.03.4 1.85.4h2.07l.4-1.1h.97l.41 1.1h4v-1.03l.61 1.03h3.23v-6.73h-3.1ZM14.3 20.79h-1.17V17l-1.65 3.78h-1.03L8.8 17v3.78H6.46l-.48-1.03H3.64l-.4 1.1H1.91L4 15.97H5.7l1.92 4.6v-4.6H9.5l1.51 3.3 1.38-3.3h1.92v4.81ZM18.98 17h-2.69v.9h2.62v.96h-2.62v.96h2.69v1.03h-3.86v-4.88h3.86V17Zm5.15 2c.14.27.2.48.2.89v.96h-1.16v-.62c0-.27 0-.69-.2-.96-.21-.2-.42-.2-.83-.2H20.9v1.78h-1.17v-4.88h2.61c.62 0 1.04 0 1.38.2.34.21.55.56.55 1.1 0 .76-.48 1.17-.83 1.31.35.07.55.28.7.41Zm2.06 1.78h-1.17V15.9h1.17v4.88Zm13.55 0h-1.65l-2.2-3.64v3.64h-2.34l-.41-1.03h-2.4l-.42 1.1h-1.3c-.56 0-1.25-.14-1.66-.55-.41-.41-.62-.96-.62-1.86 0-.68.14-1.37.62-1.92.35-.41.96-.55 1.72-.55h1.1V17h-1.1c-.41 0-.62.07-.9.28-.2.2-.34.61-.34 1.1 0 .55.07.89.35 1.16.2.21.48.28.82.28h.48l1.59-3.78h1.71l1.93 4.6v-4.6h1.72l2 3.37v-3.37h1.16v4.74h.14Z"/><path fill="#228FE0" d="M31.14 18.72h1.59l-.76-1.93-.83 1.93Zm-11.68 9.9V24.7l-1.8 1.92 1.8 2Z"/><path fill="#2FABF7" d="M12.1 25.18v.9h2.54v.96H12.1v1.03h2.82l1.3-1.45L15 25.18H12.1Z"/><path fill="#228FE0" d="M22.07 25.18h-1.45v1.24h1.52c.41 0 .68-.2.68-.62-.06-.41-.34-.62-.75-.62Z"/><path fill="#0571C1" d="M43.31 26.35v-3.1h-2.89c-.61 0-1.1.14-1.44.42v-.41h-3.16c-.48 0-1.1.13-1.38.4v-.4h-5.57v.4c-.4-.33-1.16-.4-1.5-.4h-3.72v.4c-.34-.33-1.17-.4-1.58-.4h-4.13l-.96 1.03-.9-1.03H9.9v6.73h6.05l.96-1.03.9 1.03h3.7v-1.58H22c.48 0 1.1 0 1.58-.2v1.85h3.1v-1.78h.13c.2 0 .2 0 .2.2v1.58h9.36a2.7 2.7 0 0 0 1.58-.41v.41h2.96c.61 0 1.23-.07 1.65-.34a2.34 2.34 0 0 0 1.1-2.06c0-.48-.14-.97-.35-1.31ZM22 27.45h-1.38v1.65h-2.2l-1.37-1.58-1.44 1.58h-4.54v-4.88h4.6l1.38 1.58 1.44-1.58h3.65c.9 0 1.92.27 1.92 1.58-.07 1.38-1.03 1.65-2.06 1.65Zm6.87-.27c.14.2.21.48.21.89v.96h-1.17v-.62c0-.27 0-.75-.2-.96-.14-.2-.42-.2-.83-.2h-1.24v1.78h-1.17v-4.88h2.62c.55 0 1.03 0 1.37.2.35.21.62.56.62 1.1 0 .76-.48 1.18-.82 1.31.34.14.55.28.61.42Zm4.75-2h-2.68v.9h2.61v.96h-2.61V28h2.68v1.03h-3.85v-4.88h3.85v1.03Zm2.89 3.85h-2.2V28h2.2c.2 0 .34 0 .48-.14.07-.07.13-.2.13-.34a.52.52 0 0 0-.13-.34c-.07-.07-.2-.14-.42-.14-1.1-.07-2.4 0-2.4-1.51 0-.7.41-1.45 1.65-1.45h2.27v1.17h-2.13c-.21 0-.35 0-.49.07-.13.07-.13.2-.13.34 0 .2.13.28.27.35.14.07.28.07.41.07h.62c.62 0 1.03.13 1.31.4.2.21.34.56.34 1.04 0 1.03-.62 1.51-1.78 1.51Zm5.9-.48c-.27.28-.75.48-1.44.48h-2.2V28h2.2c.21 0 .35 0 .49-.14.06-.07.13-.2.13-.34a.53.53 0 0 0-.13-.34c-.07-.07-.21-.14-.42-.14-1.1-.07-2.4 0-2.4-1.51 0-.7.41-1.45 1.65-1.45h2.27v1.17h-2.07c-.2 0-.34 0-.48.07-.14.07-.14.2-.14.34 0 .2.07.28.28.35.14.07.27.07.41.07h.62c.62 0 1.03.13 1.3.4.08 0 .08.08.08.08.2.27.27.62.27.96 0 .41-.14.76-.41 1.03Z"/><path fill="#228FE0" d="M27.64 25.32c-.14-.07-.35-.07-.55-.07H25.7v1.1h1.38c.2 0 .41 0 .55-.07.13-.07.2-.27.2-.48.07-.28-.07-.41-.2-.48Z"/><path fill="#228FE0" d="M22.83 17.07c-.14-.07-.35-.07-.55-.07H20.9v1.1h1.38c.2 0 .4 0 .55-.07.13-.07.2-.27.2-.48.07-.28-.07-.41-.2-.48Zm8.31 1.65h1.59l-.76-1.93-.83 1.93Zm-11.68 9.9V24.7l-1.8 1.92 1.8 2Zm2.6-3.44h-1.43v1.24h1.5c.42 0 .7-.2.7-.62-.07-.41-.35-.62-.76-.62Zm5.58.14c-.14-.07-.35-.07-.55-.07H25.7v1.1h1.38c.2 0 .41 0 .55-.07.14-.07.2-.27.2-.48.07-.28-.06-.41-.2-.48Z"/><path fill="#2FABF7" d="m21.59 28.9-.97-1.04v1.17h-2.26l-1.38-1.58-1.51 1.58h-4.54v-4.81h4.6l1.45 1.58.69-.82-1.72-1.72H9.9v6.73h6.05l1.03-1.03.9 1.03h3.7v-1.1ZM14.44 21.74l-.9-.96h-.4v-.41l-1.04-1.03-.69 1.44h-.96L8.8 17v3.78H6.46l-.48-1.03H3.64l-.48 1.03H1.92L4 15.97H5.7l1.92 4.6v-4.6h1.03L7.7 15H6.67v.82l-.34-.82H3.3l-1.37 3.23-1.59 3.5h3.58l.41-1.03h.96l.49 1.03h3.84v-.82l.35.82h2l.34-.82v.82h2.13Z"/><path fill="#2FABF7" d="m11.27 18.58-1.1-1.1.83 1.79.27-.69Z"/><path fill="#228FE0" d="M42.56 29.65a2.52 2.52 0 0 0 1.1-1.86l-.97-.96c.07.2.14.41.14.69 0 .41-.14.75-.41 1.03-.28.27-.76.48-1.45.48h-2.2V28h2.2c.21 0 .35 0 .49-.14.06-.07.13-.2.13-.34a.53.53 0 0 0-.13-.34c-.07-.07-.21-.14-.42-.14-1.1-.07-2.4 0-2.4-1.51 0-.7.41-1.31 1.44-1.45l-.76-.75c-.13.06-.2.13-.27.13v-.41h-3.16c-.48 0-1.1.14-1.38.41v-.41h-5.64v.41c-.4-.34-1.16-.41-1.5-.41h-3.72v.41c-.34-.34-1.17-.41-1.58-.41h-4.13l-.96 1.03-.9-1.03h-.75l2.06 2.06 1.03-1.1h3.65c.9 0 1.92.28 1.92 1.58 0 1.38-.96 1.65-1.99 1.65h-1.38v1.04l1.04 1.03v-1.03H22c.48 0 1.1 0 1.58-.21v1.86h3.1v-1.8h.13c.2 0 .2 0 .2.21v1.59h9.36a2.7 2.7 0 0 0 1.58-.42v.41h2.96c.55.07 1.16 0 1.65-.27Zm-13.69-2.47c.14.2.21.48.21.89v.96h-1.17v-.62c0-.27 0-.75-.2-.96-.14-.2-.42-.2-.83-.2h-1.24v1.78h-1.17v-4.88h2.62c.55 0 1.03 0 1.37.2.35.21.62.56.62 1.1 0 .76-.48 1.18-.82 1.31.34.14.55.28.61.41Zm4.75-2h-2.68v.9h2.61v.96h-2.61V28h2.68v1.03h-3.85v-4.88h3.85v1.03Zm2.89 3.85h-2.2V28h2.2c.2 0 .34 0 .48-.14.07-.07.13-.2.13-.34a.53.53 0 0 0-.13-.34c-.07-.07-.2-.14-.42-.14-1.1-.07-2.4 0-2.4-1.51 0-.7.41-1.45 1.65-1.45h2.27v1.17h-2.13c-.21 0-.35 0-.49.07-.13.07-.13.2-.13.34 0 .2.13.28.27.35.14.06.28.06.41.06h.62c.62 0 1.03.14 1.31.42.2.2.34.55.34 1.03 0 1.03-.62 1.51-1.78 1.51Z"/><path fill="#228FE0" d="M39.8 25.66c0 .2.07.28.28.35.14.06.28.06.41.06h.62a2 2 0 0 1 .96.21l-1.03-1.03h-.62c-.2 0-.34 0-.48.07a.53.53 0 0 0-.13.34ZM37.4 21.54l.14.2h.07l-.21-.2Zm-3.78-3.78 1.17 2.81v-1.65l-1.17-1.16Z"/><path fill="#228FE0" d="M21.86 20.02H22c.14 0 .14 0 .14.21v1.51h4.95v-.4c.41.2 1.03.4 1.85.4h2.07l.4-1.1h.97l.41 1.1h4v-.68l-.97-.97v.76h-2.34l-.34-1.1h-2.4l-.42 1.1h-1.3c-.56 0-1.25-.14-1.66-.55-.41-.41-.62-.96-.62-1.86 0-.68.14-1.37.62-1.92.35-.41.96-.55 1.72-.55h1.1V17h-1.1c-.41 0-.62.07-.9.27-.2.21-.34.62-.34 1.1 0 .55.07.9.35 1.17.2.21.48.28.82.28h.48l1.58-3.78h.7l-.97-.96h-1.79c-.75 0-1.37.13-1.92.4v-.4h-3.03v.4a1.98 1.98 0 0 0-1.3-.4H11.69l-.76 1.71-.76-1.71H7.15l.96.96H9.5l1.17 2.54.4.41 1.25-3.02h1.92v4.88h-1.17v-3.78l-1.17 2.75 2 2h7.9l.07-1.8Zm3.16-4.05h1.17v4.88h-1.17v-4.88ZM18.97 17H16.3v.9h2.62v.96h-2.62v.96h2.68v1.03h-3.85v-4.88h3.85V17Zm1.93 3.78h-1.17V15.9h2.61c.62 0 1.03 0 1.38.2.34.21.55.56.55 1.1 0 .76-.48 1.18-.83 1.31a.9.9 0 0 1 .55.41c.14.28.21.49.21.9v.96h-1.17v-.62c0-.27 0-.68-.2-.96-.07-.14-.28-.14-.7-.14H20.9v1.72Z"/></svg>
